build/category/FlagOutline.svg

<svg xmlns="http://www.w3.org/2000/svg" fill="none" viewBox="0 0 24 24" focusable="false"><path d="M0 0H24V24H0z"/><path fill="#74767B" fill-rule="evenodd" d="M5.65586 4.35054C5.46256 4.35054 5.30586 4.50724 5.30586 4.70054L5.30587 14.7011L18.2947 14.7012C18.5787 14.7012 18.7445 14.3807 18.5803 14.1489L15.7018 10.0841C15.5464 9.86469 15.5422 9.57229 15.691 9.34845L18.6535 4.89439C18.8083 4.66177 18.6415 4.35056 18.3621 4.35056L5.65586 4.35054ZM4.00587 15.3549L4.00587 20.336C4.00587 20.695 4.29689 20.986 4.65587 20.986C5.01486 20.986 5.30587 20.695 5.30587 20.336L5.30587 16.0011L18.2947 16.0012C19.6337 16.0012 20.4151 14.4903 19.6413 13.3976L17.0206 9.6969L19.736 5.61435C20.4654 4.51772 19.6792 3.05056 18.3621 3.05056L5.65586 3.05054C4.74459 3.05054 4.00586 3.78927 4.00586 4.70054L4.00587 15.3474C4.00586 15.3487 4.00586 15.3499 4.00586 15.3511C4.00586 15.3524 4.00586 15.3536 4.00587 15.3549Z"/></svg>

<svg xmlns="http://www.w3.org/2000/svg" fill="none" viewBox="0 0 24 24" focusable="false"><path fill="#74767B" fill-rule="evenodd" d="M5.65 4.35c-.19 0-.35.15-.35.35v10h12.99c.28 0 .45-.32.29-.56l-2.88-4.06a.65.65 0 0 1-.01-.74l2.96-4.45a.348.348 0 0 0-.29-.54zM4 15.35v4.98c0 .36.29.65.65.65s.65-.29.65-.65V16h12.99c1.34 0 2.12-1.51 1.35-2.61l-2.62-3.7 2.71-4.08c.73-1.1-.06-2.56-1.37-2.56H5.65C4.74 3.05 4 3.78 4 4.7v10.65"/></svg>
